X: 1
T:Lannigan's Ball
R:jig
M:6/8
K:D
EFE G2A|B2A Bcd|DED F2G|ABA AFD|EFE G2A|B2A Bcd|edB dBA|1 BGE E2D:|2 BGE
 E3||
|:e2f gfe|fag fed|e2f gfe|fdB B3|e2f gfe|fag fed|edB dBA|1 BGE E3:|2 BGE
 E2D||
